X:191
T:Norry's Lake
M:6/8
S:Preston 24CD 1804
K:G
P:A
c|BAG FEF DED FED |1,3 ABA AFD F3 A2 :|2,4 BdB cAF G3 G2 :|
P:B
D|GBd gdB ecA dBG |1,3 BdB cAG F3 A2 :|2,4 BdB cAF G3 G2 :|

